src/lib/packages/icons/src/assets/filled/shield-bolt.svg

<svg width="24" height="24" viewBox="0 0 24 24" fill="none" xmlns="http://www.w3.org/2000/svg">
<path d="M21 5C16 4 14.2221 3.111 12.0181 2C9.77807 3.111 8 4 3 5C3 6.137 3 9.70192 3 10.8889C3 17.5559 8.667 20.889 12 22C15.333 20.889 21 17.5559 21 10.8889C21 9.66392 21 6.194 21 5ZM16.261 11.7791L11.261 17.335C11.164 17.442 11.0279 17.501 10.8889 17.501C10.8279 17.501 10.768 17.49 10.71 17.468C10.517 17.394 10.3889 17.208 10.3889 17.001V13.0569H8.11206C7.91506 13.0569 7.73603 12.941 7.65503 12.761C7.57503 12.58 7.60799 12.3699 7.73999 12.2229L12.74 6.66699C12.879 6.51299 13.1 6.46091 13.291 6.53491C13.484 6.60891 13.6121 6.79495 13.6121 7.00195V10.946H15.8889C16.0859 10.946 16.2649 11.0619 16.3459 11.2419C16.4259 11.4209 16.393 11.6321 16.261 11.7791Z" fill="currentColor"/>
</svg>

<svg xmlns="http://www.w3.org/2000/svg" width="24" height="24" fill="none"><path fill="currentColor" d="M21 5c-5-1-6.778-1.889-8.982-3C9.778 3.111 8 4 3 5v5.889c0 6.667 5.667 10 9 11.111 3.333-1.111 9-4.444 9-11.111V5Zm-4.739 6.78-5 5.555a.503.503 0 0 1-.551.133.5.5 0 0 1-.321-.467v-3.944H8.112a.502.502 0 0 1-.372-.834l5-5.556a.501.501 0 0 1 .872.335v3.944h2.277a.5.5 0 0 1 .372.833Z"/></svg>
